assets/Sake/Flat/sake_flat.svg

<svg width="32" height="32" viewBox="0 0 32 32" fill="none" xmlns="http://www.w3.org/2000/svg">
<path d="M26.2168 8.65L27.9268 10.62C29.2668 12.15 29.9968 14.12 29.9968 16.15V29.06C29.9968 29.58 29.5768 30 29.0568 30H14.9268C14.4068 30 13.9868 29.58 13.9868 29.06V16.15C13.9868 14.12 14.7268 12.15 16.0568 10.62L17.7668 8.65C18.3168 8.01 18.2468 7.04 17.5868 6.52C17.3825 6.35757 17.1875 6.18392 17.0026 6L21.9603 5.0704L26.981 6C26.7962 6.18392 26.6011 6.35757 26.3968 6.52C25.7468 7.05 25.6668 8.02 26.2168 8.65Z" fill="#CDC4D6"/>
<path d="M28.3915 4C28.5991 3.55961 28.7627 3.09432 28.8768 2.61C28.9568 2.3 28.7168 2 28.3968 2H15.5968C15.2768 2 15.0368 2.3 15.1068 2.61C15.221 3.09432 15.3846 3.55961 15.5921 4L21.9603 4.82079L28.3915 4Z" fill="#CDC4D6"/>
<path d="M2.1512 23L2.00671 21.84C1.94671 21.39 2.29671 21 2.74671 21H14.5567C15.0067 21 15.3567 21.39 15.2967 21.84L15.1522 23L8.68581 23.7226L2.1512 23Z" fill="#B4ACBC"/>
<path d="M2.40033 25L2.71671 27.54C2.88671 28.94 4.08671 30 5.50671 30H11.7967C13.2167 30 14.4167 28.94 14.5867 27.54L14.9031 25L8.68581 24.1764L2.40033 25Z" fill="#B4ACBC"/>
<path d="M15.5965 4H28.3965C28.0465 4.75 27.5665 5.42 26.9865 6H17.0065C16.4265 5.42 15.9465 4.75 15.5965 4Z" fill="#0084CE"/>
<path d="M14.9065 25H2.39648L2.14648 23H15.1565L14.9065 25Z" fill="#0084CE"/>
</svg>

<svg xmlns="http://www.w3.org/2000/svg" width="32" height="32" fill="none"><path fill="#CDC4D6" d="m26.217 8.65 1.71 1.97a8.394 8.394 0 0 1 2.07 5.53v12.91c0 .52-.42.94-.94.94h-14.13c-.52 0-.94-.42-.94-.94V16.15c0-2.03.74-4 2.07-5.53l1.71-1.97c.55-.64.48-1.61-.18-2.13a7.048 7.048 0 0 1-.584-.52l4.957-.93 5.021.93c-.185.184-.38.358-.584.52-.65.53-.73 1.5-.18 2.13ZM28.392 4a7.05 7.05 0 0 0 .485-1.39.492.492 0 0 0-.48-.61h-12.8c-.32 0-.56.3-.49.61.114.484.278.95.485 1.39l6.368.82L28.391 4Z"/><path fill="#B4ACBC" d="m2.151 23-.144-1.16c-.06-.45.29-.84.74-.84h11.81c.45 0 .8.39.74.84L15.152 23l-6.466.723L2.15 23ZM2.4 25l.317 2.54A2.81 2.81 0 0 0 5.507 30h6.29a2.81 2.81 0 0 0 2.79-2.46l.316-2.54-6.217-.824L2.4 25Z"/><path fill="#0084CE" d="M15.597 4h12.8c-.35.75-.83 1.42-1.41 2h-9.98a7.034 7.034 0 0 1-1.41-2ZM14.906 25H2.396l-.25-2h13.01l-.25 2Z"/></svg>
